X: 1
T: Blaydon Flats
T: Blayden Flats	% in the K\"ohlers' Violin Repository v.1
%T: Miss Aubone Surtees' Favourite
C: trad. (arr Maurice Condie)
O: NE England
B: K\"ohlers' Violin Repository vol.1 p.66 with name spelled "Blayden Flats"
%D:1885
R: reel, hornpipe, clog
M: C|
L: 1/8
Z: 2022 John Chambers <jc:trillian.mit.edu>
F: email message from Sallie Mallast 2022-4-1
K: D
"^A"[|] A,2 |\
"D"D2FD CDB,D | A,DGB AGFE | DAFA DAFA | "Em"gfec "A"dcBA |
"D"d2df "/c#"ecac | "Bm"BcdB "A"AFDF | "G"G2BG "F#m"FAdB | "Em"AGFE "D"D2 :|
"^B"|: g2 |\
"D"fdaf  "/c#"ecAc | "Bm"d2fd "A"cAFA | "G"BGBd "F#m"Adfa | "G"gfec "A"dcBA |
"D"d2-df "/c#"ecac | "Bm"BcdB "A"AFDF | "G"G2BG "F#m"FAdB | "Em"AGFE "D"D2 :|
